X:1
T:Title
%%score 1 { 2 | 3 }
L:1/8
Q:1/4=90
M:3/4
K:A
V:1 treble nm="Grand Piano, Soprano"
V:2 bass nm="Choir Pad, Baghdad, Robert Lowry"
V:3 bass 
V:1
 [CE][CA] [DB] [Ec]3 | [DB][CA] [DF] [CE]3- | [CE] [CE]2 [DF]3 | E[DG] [CA] [EB]3 | %4
w: By~Robert~Lowry,~1875 * * *||||
 E[EA] [EB] [Ec]3 | [DB][CA] [DF] [CE]3- | [CE] [Ec]2 [EB]3 | [EG][^DF] [DG] E3- | %8
w: ||||
 E E2 [Ed] [Ed][Ed]- | [Ed]2 [Ec][DB] [CA][EG]- | [EG]2 [EG][EA] [EB][Ec]- | [Ec] [Ee]2 [EB]3- | %12
w: ||||
 [EB] [EB]2 [Ec] [Ed][Ee]- | [Ee]2 [Ed][Fd] [Fc][DF]- | [DF]2 [FB][EA] [EG][Ec]- | %15
w: |||
 [Ec] [EB]2 [EA]3- | [EA]4 z2 |] %17
w: ||
V:2
 A,A, A, A,3 | A,A, A, A,3- | A, A,2 A,3 | A,E, A, G,3 | G,A, G, A,3 | G,A, A, A,3- | A, A,2 G,3 | %7
 B,A, B, G,3- | G, G,2 B, B,B,- | B,2 A,G, A,B,- | B,2 B,A, G,A,- | A, A,2 G,3- | G, G,2 A, B,C- | %13
 C2 A,A, A,A,- | A,2[K:treble] DC B,A,- | A, D2 C3- | C4 z2 |] %17
V:3
 A,,A,, A,, A,,3 | A,,A,, A,, A,,3- | A,, A,,2 D,3 | C,B,, A,, E,3 | E,C, .E,2 z2 | E,F, D, A,,3- | %6
 A,, A,,2 B,,3 | B,,B,, B,, E,3- | E, E,2 E, E,E,- | E,2 E,E, E,E,- | E,2 D,C, B,,A,,- | %11
 A,, C,2 E,3- | E, .E,3 A,A,- | A,2 z D, D,D,- | D,2 D,E, E,E,- | E, E,2 A,,3- | A,,4 z2 |] %17

